X: 17221
T: Her Long Dark Hair Flowing Down Her Back
R: hornpipe
M: 4/4
K: Cmajor
|:cd|edce d2cA|GE~E2 GAcd|edce d2cd|eaag ac'gf|
edce d2cA|GE~F2 GAcd|edce dcAG|A2AG A2:|
|:cd|egga gede|cAGA c3d|eaag ac'gf|edce ~d2cd|
egga gede|cAGA c3d|edce dcAG|A2AG A2:|

